;FLAVOR:Marlin
;TIME:6721
;Filament used: 5.51279m
;Layer height: 0.2
;MINX:57.185
;MINY:70.157
;MINZ:0.2
;MAXX:177.831
;MAXY:128.472
;MAXZ:10
;Generated with Cura_SteamEngine 4.8.0
M140 S65
M105
M190 S65
M104 S205
M105
M109 S205
M82 ;absolute extrusion mode
; Ender 3 Custom Start G-code
G92 E0 ; Reset Extruder
G28 ; Home all axes
G1 Z2.0 F3000 ; Move Z Axis up little to prevent scratching of Heat Bed
G1 X0.1 Y20 Z0.3 F5000.0 ; Move to start position
G1 X0.1 Y200.0 Z0.3 F1500.0 E15 ; Draw the first line
G1 X0.4 Y200.0 Z0.3 F5000.0 ; Move to side a little
G1 X0.4 Y20 Z0.3 F1500.0 E30 ; Draw the second line
G92 E0 ; Reset Extruder
G1 Z2.0 F3000 ; Move Z Axis up little to prevent scratching of Heat Bed
G1 X5 Y20 Z0.3 F5000.0 ; Move over to prevent blob squish
G92 E0
G92 E0
G1 F2700 E-5
;LAYER_COUNT:50
;LAYER:0
M107
G0 F1200 X64.829 Y76.146 Z0.2
;TYPE:SKIRT
G1 F2700 E0
G1 F1200 X65.047 Y75.963 E0.00947
G1 X65.324 Y75.738 E0.02134
G1 X66.062 Y75.16 E0.05251
G1 X66.592 Y74.756 E0.07468
G1 X67.342 Y74.232 E0.10511
G1 X67.635 Y74.045 E0.11667
G1 X67.914 Y73.872 E0.12759
G1 X68.809 Y73.339 E0.16224
G1 X69.403 Y72.996 E0.18505
G1 X70.276 Y72.543 E0.21776
G1 X70.56 Y72.414 E0.22814
G1 X71.174 Y72.146 E0.25042
G1 X71.894 Y71.843 E0.2764
G1 X72.538 Y71.581 E0.29953
G1 X73.38 Y71.278 E0.32929
G1 X73.758 Y71.164 E0.34242
G1 X74.472 Y70.964 E0.36708
G1 X74.859 Y70.861 E0.3804
G1 X75.512 Y70.696 E0.4028
G1 X76.766 Y70.456 E0.44527
G1 X77.636 Y70.341 E0.47446
G1 X78.141 Y70.282 E0.49137
G1 X78.862 Y70.21 E0.51547
G1 X80.099 Y70.157 E0.55665
G1 X80.924 Y70.169 E0.58409
G1 X81.571 Y70.187 E0.60562
G1 X82.165 Y70.212 E0.62539
G1 X83.125 Y70.294 E0.65744
G1 X83.427 Y70.333 E0.66757
G1 X85.975 Y70.633 E0.7529
G1 X88.505 Y70.858 E0.83738
G1 X91.022 Y71.01 E0.92125
G1 X93.509 Y71.091 E1.00401
G1 X96.033 Y71.1 E1.08796
G1 X98.556 Y71.039 E1.1719
G1 X101.118 Y70.904 E1.25723
G1 X102.881 Y70.768 E1.31604
G1 X103.148 Y70.744 E1.32496
G1 X103.468 Y70.72 E1.33563
G1 X104.181 Y70.679 E1.35938
G1 X104.687 Y70.655 E1.37623
G1 X105.359 Y70.632 E1.39859
G1 X106.322 Y70.642 E1.43063
G1 X107.316 Y70.696 E1.46374
G1 X108.215 Y70.758 E1.49371
G1 X109.57 Y70.871 E1.53893
G1 X111.253 Y71.034 E1.59517
G1 X113.734 Y71.204 E1.67788
G1 X116.265 Y71.306 E1.76213
G1 X118.785 Y71.336 E1.84595
G1 X121.277 Y71.295 E1.92885
G1 X123.798 Y71.182 E2.01278
G1 X126.336 Y70.997 E2.09742
G1 X128.388 Y70.795 E2.166
G1 X129.957 Y70.623 E2.2185
G1 X130.298 Y70.593 E2.22988
G1 X131.047 Y70.536 E2.25487
G1 X131.939 Y70.504 E2.28455
G1 X132.514 Y70.507 E2.30368
G1 X132.806 Y70.513 E2.31339
G1 X133.31 Y70.529 E2.33016
G1 X133.979 Y70.57 E2.35246
G1 X135.055 Y70.67 E2.3884
G1 X135.267 Y70.692 E2.39549
G1 X136.431 Y70.823 E2.43445
G1 X136.587 Y70.832 E2.43964
G1 X138 Y70.991 E2.48694
G1 X140.489 Y71.202 E2.57002
G1 X142.996 Y71.341 E2.65353
G1 X145.527 Y71.411 E2.73774
G1 X148.051 Y71.409 E2.82169
G1 X150.55 Y71.337 E2.90484
G1 X151.236 Y71.3 E2.92769
G1 X152.123 Y71.266 E2.95722
G1 X152.377 Y71.259 E2.96567
G1 X152.89 Y71.252 E2.98273
G1 X153.296 Y71.252 E2.99624
G1 X153.989 Y71.26 E3.01929
G1 X155.107 Y71.33 E3.05654
G1 X155.592 Y71.393 E3.07281
G1 X156.366 Y71.511 E3.09885
G1 X156.653 Y71.56 E3.10854
G1 X157.314 Y71.678 E3.13087
G1 X158.504 Y71.96 E3.17154
G1 X158.808 Y72.05 E3.18209
G1 X159.133 Y72.151 E3.19341
G1 X159.801 Y72.373 E3.21682
G1 X160.486 Y72.611 E3.24094
G1 X161.651 Y73.092 E3.28286
G1 X162.482 Y73.494 E3.31356
G1 X162.813 Y73.661 E3.3259
G1 X163.291 Y73.909 E3.34381
G1 X164.153 Y74.407 E3.37692
G1 X165.133 Y75.034 E3.41561
G1 X165.462 Y75.253 E3.42876
G1 X166.049 Y75.659 E3.4525
G1 X166.784 Y76.214 E3.48313
G1 X167.524 Y76.825 E3.51505
G1 X168.245 Y77.44 E3.54657
G1 X168.73 Y77.864 E3.56799
G1 X169.443 Y78.546 E3.60081
G1 X170.024 Y79.154 E3.62878
G1 X170.77 Y79.959 E3.66528
G1 X171.202 Y80.439 E3.68676
G1 X171.806 Y81.171 E3.71833
G1 X172.323 Y81.856 E3.74687
G1 X172.614 Y82.253 E3.76324
G1 X173.118 Y82.963 E3.7922
G1 X173.612 Y83.726 E3.82243
G1 X173.759 Y83.975 E3.83205
G1 X173.929 Y84.273 E3.84346
G1 X174.357 Y85.054 E3.87308
G1 X174.656 Y85.619 E3.89434
G1 X175.086 Y86.532 E3.92791
G1 X175.589 Y87.742 E3.97149
G1 X175.715 Y88.064 E3.98299
G1 X175.955 Y88.698 E4.00554
G1 X176.246 Y89.577 E4.03634
G1 X176.473 Y90.378 E4.06403
G1 X176.741 Y91.38 E4.09853
G1 X176.907 Y92.035 E4.121
G1 X177.041 Y92.633 E4.14138
G1 X177.224 Y93.58 E4.17346
G1 X177.393 Y94.533 E4.20565
G1 X177.489 Y95.119 E4.2254
G1 X177.577 Y95.777 E4.24748
G1 X177.681 Y96.793 E4.28145
G1 X177.742 Y97.512 E4.30545
G1 X177.804 Y98.387 E4.33463
G1 X177.831 Y99.055 E4.35686
G1 X177.831 Y99.417 E4.3689
G1 X177.822 Y99.994 E4.3881
G1 X177.799 Y100.812 E4.41532
G1 X177.775 Y101.41 E4.43522
G1 X177.687 Y102.423 E4.46904
G1 X177.508 Y103.755 E4.51374
G1 X177.429 Y104.266 E4.53094
G1 X177.311 Y104.968 E4.55462
G1 X177.109 Y105.912 E4.58672
G1 X176.993 Y106.352 E4.60186
G1 X176.914 Y106.629 E4.61144
G1 X176.606 Y107.676 E4.64774
G1 X176.4 Y108.34 E4.67086
G1 X176.09 Y109.21 E4.70158
G1 X175.907 Y109.656 E4.71761
G1 X175.764 Y109.987 E4.72961
G1 X175.382 Y110.848 E4.76093
G1 X175.146 Y111.364 E4.77981
G1 X174.678 Y112.274 E4.81384
G1 X174.086 Y113.303 E4.85333
G1 X173.76 Y113.848 E4.87445
G1 X173.387 Y114.447 E4.89792
G1 X172.849 Y115.232 E4.92957
G1 X172.693 Y115.44 E4.93822
G1 X172.372 Y115.854 E4.95564
G1 X171.965 Y116.361 E4.97727
G1 X171.504 Y116.922 E5.00142
G1 X170.875 Y117.624 E5.03277
G1 X170.708 Y117.795 E5.04072
G1 X170.261 Y118.235 E5.06158
G1 X170.074 Y118.414 E5.07019
G1 X169.6 Y118.856 E5.09174
G1 X168.627 Y119.664 E5.13381
G1 X168.01 Y120.119 E5.15931
G1 X167.736 Y120.314 E5.17049
G1 X167.276 Y120.632 E5.18909
G1 X166.187 Y121.295 E5.2315
G1 X165.89 Y121.453 E5.24269
G1 X165.501 Y121.651 E5.25721
G1 X164.775 Y122.001 E5.28401
G1 X163.668 Y122.462 E5.3239
G1 X163.377 Y122.565 E5.33416
G1 X163.048 Y122.675 E5.3457
G1 X162.589 Y122.819 E5.3617
G1 X161.965 Y123.003 E5.38334
G1 X160.739 Y123.289 E5.42521
G1 X159.894 Y123.436 E5.45374
G1 X159.518 Y123.495 E5.4664
G1 X158.991 Y123.568 E5.48409
G1 X157.754 Y123.669 E5.52537
G1 X156.764 Y123.693 E5.55831
G1 X154.165 Y123.794 E5.64482
G1 X151.682 Y123.96 E5.72759
G1 X149.16 Y124.201 E5.81185
G1 X146.68 Y124.509 E5.89497
G1 X144.188 Y124.889 E5.97881
G1 X141.689 Y125.344 E6.06329
G1 X140.511 Y125.575 E6.10322
G1 X139.513 Y125.723 E6.13678
G1 X138.359 Y125.84 E6.17536
G1 X137.982 Y125.872 E6.18794
G1 X137.308 Y125.917 E6.21041
G1 X136.002 Y125.926 E6.25385
G1 X134.947 Y125.871 E6.28898
G1 X131.823 Y125.646 E6.39316
G1 X129.317 Y125.538 E6.47659
G1 X126.784 Y125.499 E6.56084
G1 X124.3 Y125.532 E6.64347
G1 X121.108 Y125.675 E6.74974
G1 X120.126 Y125.736 E6.78247
G1 X119.806 Y125.751 E6.79312
G1 X119.383 Y125.762 E6.80719
G1 X119.003 Y125.766 E6.81983
G1 X117.904 Y125.766 E6.85639
G1 X116.892 Y125.753 E6.89005
G1 X114.283 Y125.757 E6.97683
G1 X111.76 Y125.832 E7.06078
G1 X109.264 Y125.977 E7.14393
G1 X106.777 Y126.191 E7.22696
G1 X104.224 Y126.486 E7.31244
G1 X101.771 Y126.838 E7.39486
G1 X99.239 Y127.276 E7.48032
G1 X96.06 Y127.902 E7.58809
G1 X95.473 Y128.009 E7.60793
G1 X94.828 Y128.107 E7.62963
G1 X93.866 Y128.224 E7.66187
G1 X92.808 Y128.335 E7.69725
G1 X91.903 Y128.416 E7.72747
G1 X91.292 Y128.454 E7.74783
G1 X91.022 Y128.463 E7.75682
G1 X90.502 Y128.471 E7.77411
G1 X89.3 Y128.472 E7.81409
G1 X88.641 Y128.464 E7.83601
G1 X87.982 Y128.436 E7.85795
G1 X87.575 Y128.404 E7.87153
G1 X87.029 Y128.352 E7.88977
G1 X86.114 Y128.253 E7.92038
G1 X85.437 Y128.171 E7.94306
G1 X84.484 Y128.013 E7.97519
G1 X83.403 Y127.783 E8.01195
G1 X82.663 Y127.611 E8.03722
G1 X82.065 Y127.464 E8.0577
G1 X81.133 Y127.191 E8.09
G1 X80.077 Y126.83 E8.12712
G1 X79.731 Y126.705 E8.13936
G1 X78.896 Y126.388 E8.16906
G1 X78.03 Y126.016 E8.20041
G1 X77.737 Y125.875 E8.21123
G1 X77.448 Y125.731 E8.22197
G1 X76.442 Y125.209 E8.25966
G1 X75.92 Y124.929 E8.27936
G1 X75.074 Y124.424 E8.31213
G1 X74.153 Y123.818 E8.3488
G1 X73.716 Y123.52 E8.36639
G1 X73.052 Y123.052 E8.39341
G1 X72.297 Y122.467 E8.42518
G1 X71.543 Y121.827 E8.45808
G1 X71.077 Y121.42 E8.47865
G1 X70.419 Y120.827 E8.50811
G1 X69.943 Y120.371 E8.53004
G1 X69.688 Y120.108 E8.54222
G1 X69.345 Y119.743 E8.55888
G1 X68.48 Y118.803 E8.60137
G1 X67.987 Y118.252 E8.62596
G1 X67.567 Y117.754 E8.64763
G1 X67.312 Y117.427 E8.66142
G1 X67.039 Y117.068 E8.67642
G1 X66.263 Y116.02 E8.71979
G1 X65.957 Y115.597 E8.73716
G1 X65.555 Y115.003 E8.76101
G1 X64.887 Y113.94 E8.80277
G1 X64.661 Y113.566 E8.8173
G1 X64.2 Y112.772 E8.84784
G1 X63.773 Y111.959 E8.87838
G1 X63.423 Y111.214 E8.90576
G1 X63.224 Y110.775 E8.92179
G1 X62.946 Y110.137 E8.94494
G1 X62.831 Y109.863 E8.95482
G1 X62.551 Y109.171 E8.97965
G1 X61.549 Y106.786 E9.06569
G1 X60.496 Y104.467 E9.1504
G1 X59.752 Y102.928 E9.20726
G1 X59.397 Y102.208 E9.23396
G1 X59.099 Y101.585 E9.25693
G1 X58.614 Y100.397 E9.29961
G1 X58.271 Y99.389 E9.33502
G1 X58.162 Y99.046 E9.34699
G1 X57.975 Y98.434 E9.36828
G1 X57.672 Y97.184 E9.41105
G1 X57.48 Y96.126 E9.44682
G1 X57.423 Y95.781 E9.45845
G1 X57.316 Y95.062 E9.48263
G1 X57.202 Y93.818 E9.52418
G1 X57.193 Y93.554 E9.53296
G1 X57.187 Y93.225 E9.54391
G1 X57.185 Y92.333 E9.57357
G1 X57.193 Y91.624 E9.59716
G1 X57.28 Y90.358 E9.63936
G1 X57.313 Y90.099 E9.64805
G1 X57.385 Y89.602 E9.66475
G1 X57.479 Y89.013 E9.68459
G1 X57.627 Y88.177 E9.71283
G1 X57.908 Y86.984 E9.75359
G1 X58.023 Y86.605 E9.76676
G1 X58.192 Y86.079 E9.78514
G1 X58.349 Y85.613 E9.80149
G1 X58.593 Y84.915 E9.82609
G1 X59.071 Y83.763 E9.86757
G1 X59.263 Y83.371 E9.88209
G1 X59.464 Y82.978 E9.89677
G1 X59.698 Y82.533 E9.91349
G1 X60.003 Y81.968 E9.93485
G1 X60.693 Y80.854 E9.97843
G1 X61.298 Y79.996 E10.01335
G1 X61.523 Y79.689 E10.02601
G1 X61.934 Y79.147 E10.04863
G1 X62.743 Y78.197 E10.09014
G1 X63.311 Y77.602 E10.11749
G1 X63.511 Y77.397 E10.12702
G1 X64.137 Y76.777 E10.15632
G1 X64.355 Y76.568 E10.16637
G1 X64.829 Y76.146 E10.18748
G0 X65.086 Y76.452
G1 X65.304 Y76.269 E10.19694
G1 X65.571 Y76.053 E10.20837
G1 X66.304 Y75.478 E10.23935
G1 X66.834 Y75.074 E10.26152
G1 X67.557 Y74.569 E10.29085
G1 X67.85 Y74.382 E10.30241
G1 X68.119 Y74.216 E10.31292
G1 X69.009 Y73.685 E10.34739
G1 X69.603 Y73.342 E10.37021
G1 X70.444 Y72.906 E10.40171
G1 X70.72 Y72.781 E10.41179
G1 X71.33 Y72.514 E10.43394
G1 X72.044 Y72.213 E10.45971
G1 X72.688 Y71.951 E10.48284
G1 X73.5 Y71.659 E10.51154
G1 X73.866 Y71.549 E10.52425
G1 X74.576 Y71.35 E10.54877
G1 X74.957 Y71.249 E10.56188
G1 X75.61 Y71.084 E10.58428
G1 X76.818 Y70.852 E10.6252
G1 X77.688 Y70.737 E10.65438
G1 X78.181 Y70.68 E10.67089
G1 X78.902 Y70.608 E10.69499
G1 X80.094 Y70.557 E10.73467
G1 X80.913 Y70.568 E10.76191
G1 X81.554 Y70.586 E10.78324
G1 X82.148 Y70.611 E10.80302
G1 X83.073 Y70.691 E10.8339
G1 X83.321 Y70.723 E10.84221
G1 X85.968 Y71.034 E10.93086
G1 X88.443 Y71.255 E11.01351
G1 X90.985 Y71.409 E11.09821
G1 X93.53 Y71.491 E11.1829
G1 X96.04 Y71.5 E11.26638
G1 X98.587 Y71.438 E11.35112
G1 X101.089 Y71.306 E11.43445
G1 X102.943 Y71.163 E11.4963
G1 X103.183 Y71.142 E11.50431
G1 X103.491 Y71.12 E11.51458
G1 X104.201 Y71.078 E11.53824
G1 X104.7 Y71.055 E11.55485
G1 X105.372 Y71.032 E11.57722
G1 X106.301 Y71.041 E11.60812
G1 X107.289 Y71.095 E11.64103
G1 X108.182 Y71.156 E11.6708
G1 X109.532 Y71.269 E11.71586
G1 X111.224 Y71.433 E11.7724
G1 X113.727 Y71.604 E11.85584
G1 X116.244 Y71.706 E11.93963
G1 X118.752 Y71.736 E12.02305
G1 X121.338 Y71.693 E12.10907
G1 X123.809 Y71.583 E12.19134
G1 X126.368 Y71.396 E12.27668
G1 X128.466 Y71.189 E12.3468
G1 X129.995 Y71.021 E12.39796
G1 X130.329 Y70.992 E12.40911
G1 X131.078 Y70.935 E12.43409
G1 X131.937 Y70.904 E12.46268
G1 X132.512 Y70.907 E12.48181
G1 X132.793 Y70.912 E12.49115
G1 X133.297 Y70.928 E12.50792
G1 X133.942 Y70.968 E12.52942
G1 X135.018 Y71.068 E12.56536
G1 X136.335 Y71.215 E12.60944
G1 X136.542 Y71.23 E12.61634
G1 X137.954 Y71.389 E12.6636
G1 X140.437 Y71.599 E12.74648
G1 X142.997 Y71.741 E12.83176
G1 X145.516 Y71.811 E12.91557
G1 X148.028 Y71.809 E12.99912
G1 X150.582 Y71.735 E13.0841
G1 X151.068 Y71.708 E13.10029
G1 X152.138 Y71.666 E13.13591
G1 X152.383 Y71.659 E13.14406
G1 X152.892 Y71.652 E13.16099
G1 X153.291 Y71.652 E13.17426
G1 X153.984 Y71.66 E13.19731
G1 X155.062 Y71.727 E13.23324
G1 X155.532 Y71.788 E13.249
G1 X156.299 Y71.906 E13.27481
G1 X156.583 Y71.954 E13.28439
G1 X157.244 Y72.072 E13.30672
G1 X158.39 Y72.343 E13.34589
G1 X158.694 Y72.433 E13.35643
G1 X159.007 Y72.531 E13.36734
G1 X159.67 Y72.751 E13.39058
G1 X160.355 Y72.989 E13.4147
G1 X161.477 Y73.453 E13.45508
G1 X162.303 Y73.852 E13.48559
G1 X162.629 Y74.016 E13.49773
G1 X163.107 Y74.264 E13.51564
G1 X163.938 Y74.744 E13.54756
G1 X164.918 Y75.371 E13.58625
G1 X165.235 Y75.582 E13.59892
G1 X165.822 Y75.988 E13.62266
G1 X166.53 Y76.523 E13.65217
G1 X167.13 Y77.017 E13.67802
G1 X167.982 Y77.742 E13.71523
G1 X168.467 Y78.166 E13.73666
G1 X169.154 Y78.823 E13.76827
G1 X169.844 Y79.547 E13.80154
G1 X170.473 Y80.227 E13.83235
G1 X170.905 Y80.707 E13.85382
G1 X171.487 Y81.412 E13.88423
G1 X172.004 Y82.097 E13.91277
G1 X172.385 Y82.619 E13.93427
G1 X172.792 Y83.194 E13.9577
G1 X173.268 Y83.929 E13.98682
G1 X173.415 Y84.178 E13.99644
G1 X173.579 Y84.465 E14.00744
G1 X173.926 Y85.097 E14.03142
G1 X174.302 Y85.806 E14.05811
G1 X174.717 Y86.686 E14.09047
G1 X175.217 Y87.889 E14.1338
G1 X175.34 Y88.205 E14.14508
G1 X175.58 Y88.839 E14.16763
G1 X175.861 Y89.686 E14.19731
G1 X176.044 Y90.328 E14.21951
G1 X176.353 Y91.478 E14.25912
G1 X176.519 Y92.133 E14.28159
G1 X176.648 Y92.709 E14.30122
G1 X176.83 Y93.651 E14.33313
G1 X176.999 Y94.597 E14.36509
G1 X177.095 Y95.183 E14.38485
G1 X177.179 Y95.818 E14.40615
G1 X177.283 Y96.834 E14.44012
G1 X177.302 Y97.038 E14.44693
G1 X177.354 Y97.683 E14.46846
G1 X177.405 Y98.415 E14.49286
G1 X177.431 Y99.058 E14.51426
G1 X177.431 Y99.412 E14.52604
G1 X177.422 Y99.983 E14.54503
G1 X177.399 Y100.796 E14.57208
G1 X177.375 Y101.394 E14.59199
G1 X177.291 Y102.371 E14.6246
G1 X177.113 Y103.694 E14.669
G1 X177.034 Y104.2 E14.68604
G1 X176.916 Y104.902 E14.70971
G1 X176.722 Y105.811 E14.74063
G1 X176.608 Y106.244 E14.75552
G1 X176.53 Y106.517 E14.76496
G1 X176.224 Y107.558 E14.80105
G1 X176.018 Y108.222 E14.82418
G1 X175.719 Y109.06 E14.85377
G1 X175.539 Y109.499 E14.86955
G1 X175.398 Y109.825 E14.88136
G1 X175.019 Y110.682 E14.91253
G1 X174.783 Y111.198 E14.9314
G1 X174.331 Y112.075 E14.96422
G1 X173.739 Y113.104 E15.0037
G1 X173.511 Y113.487 E15.01853
G1 X173.047 Y114.235 E15.0478
G1 X172.529 Y114.992 E15.07831
G1 X172.244 Y115.368 E15.094
G1 X172.059 Y115.604 E15.10398
G1 X171.656 Y116.107 E15.12541
G1 X171.195 Y116.668 E15.14957
G1 X170.589 Y117.344 E15.17976
G1 X170.247 Y117.689 E15.19592
G1 X169.981 Y117.949 E15.20829
G1 X169.801 Y118.121 E15.21657
G1 X169.327 Y118.563 E15.23813
G1 X168.389 Y119.342 E15.27868
G1 X167.772 Y119.797 E15.30418
G1 X167.509 Y119.985 E15.31493
G1 X167.049 Y120.303 E15.33353
G1 X165.999 Y120.942 E15.37441
G1 X165.702 Y121.1 E15.3856
G1 X165.327 Y121.29 E15.39958
G1 X164.601 Y121.64 E15.42639
G1 X163.535 Y122.085 E15.46481
G1 X163.244 Y122.188 E15.47508
G1 X162.926 Y122.294 E15.48623
G1 X162.476 Y122.435 E15.50191
G1 X161.852 Y122.619 E15.52355
G1 X160.671 Y122.895 E15.56389
G1 X159.826 Y123.042 E15.59241
G1 X159.463 Y123.099 E15.60464
G1 X158.936 Y123.172 E15.62233
G1 X157.744 Y123.269 E15.66211
G1 X156.74 Y123.294 E15.69551
G1 X154.157 Y123.393 E15.78149
G1 X151.653 Y123.561 E15.86496
G1 X149.109 Y123.804 E15.94996
G1 X146.642 Y124.11 E16.03264
G1 X144.088 Y124.5 E16.11857
G1 X141.625 Y124.949 E16.20184
G1 X140.434 Y125.183 E16.24221
G1 X139.472 Y125.325 E16.27455
G1 X138.318 Y125.442 E16.31313
G1 X137.955 Y125.472 E16.32524
G1 X137.281 Y125.517 E16.34771
G1 X136.023 Y125.527 E16.38955
G1 X134.968 Y125.472 E16.42469
G1 X131.836 Y125.246 E16.52913
G1 X129.34 Y125.138 E16.61223
G1 X126.785 Y125.099 E16.69722
G1 X124.277 Y125.132 E16.78064
G1 X121.065 Y125.276 E16.88758
G1 X120.101 Y125.336 E16.9197
G1 X119.793 Y125.351 E16.92996
G1 X119.378 Y125.362 E16.94377
G1 X119.002 Y125.366 E16.95628
G1 X117.909 Y125.366 E16.99263
